icons/op-view-fullscreen-16.svg

<svg width="16" height="16" viewBox="0 0 16 16" fill="none" xmlns="http://www.w3.org/2000/svg">
<g clip-path="url(#clip0_35_1763)">
<path d="M0 1.75C0 0.784 0.784 0 1.75 0H14.25C15.216 0 16 0.784 16 1.75V14.25C16 14.7141 15.8156 15.1592 15.4874 15.4874C15.1592 15.8156 14.7141 16 14.25 16H1.75C1.28587 16 0.840752 15.8156 0.512563 15.4874C0.184374 15.1592 0 14.7141 0 14.25V1.75ZM1.75 1.5C1.6837 1.5 1.62011 1.52634 1.57322 1.57322C1.52634 1.62011 1.5 1.6837 1.5 1.75V14.25C1.5 14.388 1.612 14.5 1.75 14.5H14.25C14.3163 14.5 14.3799 14.4737 14.4268 14.4268C14.4737 14.3799 14.5 14.3163 14.5 14.25V1.75C14.5 1.6837 14.4737 1.62011 14.4268 1.57322C14.3799 1.52634 14.3163 1.5 14.25 1.5H1.75Z" fill="#1F2328"/>
<path fill-rule="evenodd" clip-rule="evenodd" d="M4.75 4.5C4.61193 4.5 4.5 4.61193 4.5 4.75V6.25C4.5 6.66421 4.16421 7 3.75 7C3.33579 7 3 6.66421 3 6.25V4.75C3 3.7835 3.7835 3 4.75 3H6.25C6.66421 3 7 3.33579 7 3.75C7 4.16421 6.66421 4.5 6.25 4.5H4.75ZM9 3.75C9 3.33579 9.3358 3 9.75 3H11.25C12.2165 3 13 3.7835 13 4.75V6.25C13 6.66421 12.6642 7 12.25 7C11.8358 7 11.5 6.66421 11.5 6.25V4.75C11.5 4.61193 11.3881 4.5 11.25 4.5H9.75C9.3358 4.5 9 4.16421 9 3.75ZM3.75 9C4.16421 9 4.5 9.3358 4.5 9.75V11.25C4.5 11.3881 4.61193 11.5 4.75 11.5H6.25C6.66421 11.5 7 11.8358 7 12.25C7 12.6642 6.66421 13 6.25 13H4.75C3.7835 13 3 12.2165 3 11.25V9.75C3 9.3358 3.33579 9 3.75 9ZM12.25 9C12.6642 9 13 9.3358 13 9.75V11.25C13 12.2165 12.2165 13 11.25 13H9.75C9.3358 13 9 12.6642 9 12.25C9 11.8358 9.3358 11.5 9.75 11.5H11.25C11.3881 11.5 11.5 11.3881 11.5 11.25V9.75C11.5 9.3358 11.8358 9 12.25 9Z" fill="#1F2328"/>
</g>
<defs>
<clipPath id="clip0_35_1763">
<rect width="16" height="16" fill="white"/>
</clipPath>
</defs>
</svg>

<svg xmlns="http://www.w3.org/2000/svg" width="16" height="16" viewBox="0 0 16 16"><path d="M0 1.75C0 .784.784 0 1.75 0h12.5C15.216 0 16 .784 16 1.75v12.5c0 .464-.184.909-.513 1.237A1.746 1.746 0 0 1 14.25 16H1.75c-.464 0-.909-.184-1.237-.513A1.746 1.746 0 0 1 0 14.25Zm1.75-.25a.25.25 0 0 0-.25.25v12.5c0 .138.112.25.25.25h12.5a.25.25 0 0 0 .25-.25V1.75a.25.25 0 0 0-.25-.25Z"/><path d="M4.75 4.5a.25.25 0 0 0-.25.25v1.5a.75.75 0 0 1-1.5 0v-1.5C3 3.783 3.783 3 4.75 3h1.5a.75.75 0 0 1 0 1.5ZM9 3.75A.75.75 0 0 1 9.75 3h1.5c.967 0 1.75.783 1.75 1.75v1.5a.75.75 0 0 1-1.5 0v-1.5a.25.25 0 0 0-.25-.25h-1.5A.75.75 0 0 1 9 3.75ZM3.75 9a.75.75 0 0 1 .75.75v1.5c0 .138.112.25.25.25h1.5a.75.75 0 0 1 0 1.5h-1.5A1.75 1.75 0 0 1 3 11.25v-1.5A.75.75 0 0 1 3.75 9Zm8.5 0a.75.75 0 0 1 .75.75v1.5A1.75 1.75 0 0 1 11.25 13h-1.5a.75.75 0 0 1 0-1.5h1.5a.25.25 0 0 0 .25-.25v-1.5a.75.75 0 0 1 .75-.75Z"/></svg>
